src/xmb/flatui/menu_record.svg

<svg xmlns="http://www.w3.org/2000/svg" xml:space="preserve" width="64" height="64" viewBox="0 128 64 64"><g style="stroke-width:4"><g style="fill:#2c3e50;fill-opacity:1;stroke-width:4"><path d="M0 0c-6.617 0-12 5.383-12 12s5.383 12 12 12 12-5.383 12-12S6.617 0 0 0m64 0c-6.617 0-12 5.383-12 12s5.383 12 12 12 12-5.383 12-12S70.617 0 64 0m0 40c-11.832 0-22.441-7.5-26.399-18.663A27.9 27.9 0 0 1 36 12c0-4.184.943-8.275 2.725-12h-13.45A27.8 27.8 0 0 1 28 12c0 15.439-12.561 28-28 28s-28-12.561-28-28 12.561-28 28-28h64c15.439 0 28 12.561 28 28S79.439 40 64 40" style="fill:#2c3e50;fill-opacity:1;fill-rule:nonzero;stroke:none;stroke-width:4" transform="matrix(.33333 0 0 -.33333 21.333 164)"/></g><g style="fill:#ecf0f1;fill-opacity:1;stroke-width:4"><path d="M0 0c-8.837 0-16 7.163-16 16s7.163 16 16 16 16-7.164 16-16S8.837 0 0 0m-80 16c0 8.836 7.164 16 16 16s16-7.164 16-16-7.164-16-16-16-16 7.163-16 16M0 40c-10.43 0-19.327-6.687-22.629-16A23.9 23.9 0 0 1-24 16c0-6.15 2.345-11.749 6.162-16h-28.324C-42.345 4.251-40 9.85-40 16c0 13.233-10.766 24-24 24s-24-10.767-24-24S-77.233-8-64-8H0C13.233-8 24 2.767 24 16S13.233 40 0 40" style="fill:#ecf0f1;fill-opacity:1;fill-rule:nonzero;stroke:none;stroke-width:4" transform="matrix(.33333 0 0 -.33333 42.667 165.333)"/></g></g></svg>

<?xml version="1.0" encoding="UTF-8" standalone="no"?>

<svg
   xmlns:dc="http://purl.org/dc/elements/1.1/"
   xmlns:cc="http://creativecommons.org/ns#"
   xmlns:rdf="http://www.w3.org/1999/02/22-rdf-syntax-ns#"
   xmlns:svg="http://www.w3.org/2000/svg"
   xmlns="http://www.w3.org/2000/svg"
   xmlns:sodipodi="http://sodipodi.sourceforge.net/DTD/sodipodi-0.dtd"
   xmlns:inkscape="http://www.inkscape.org/namespaces/inkscape"
   version="1.1"
   id="svg2"
   inkscape:export-filename="/media/alfrix/DATOS/xmb/menu_record.png"
   inkscape:export-xdpi="90"
   inkscape:version="0.92.3 (2405546, 2018-03-11)"
   inkscape:export-ydpi="90"
   sodipodi:docname="menu_record.svg"
   x="0px"
   y="0px"
   width="64px"
   height="64px"
   viewBox="0 128 64 64"
   enable-background="new 0 128 64 64"
   xml:space="preserve"><metadata
     id="metadata8"><rdf:RDF><cc:Work
         rdf:about=""><dc:format>image/svg+xml</dc:format><dc:type
           rdf:resource="http://purl.org/dc/dcmitype/StillImage" /><dc:title /></cc:Work></rdf:RDF></metadata><defs
     id="defs6" /><sodipodi:namedview
     pagecolor="#ffffff"
     bordercolor="#666666"
     borderopacity="1"
     objecttolerance="10"
     gridtolerance="10"
     guidetolerance="10"
     inkscape:pageopacity="0"
     inkscape:pageshadow="2"
     inkscape:window-width="1024"
     inkscape:window-height="705"
     id="namedview4"
     showgrid="true"
     inkscape:zoom="3.6875"
     inkscape:cx="9.5197379"
     inkscape:cy="52.071547"
     inkscape:window-x="-8"
     inkscape:window-y="-8"
     inkscape:window-maximized="1"
     inkscape:current-layer="svg2"><inkscape:grid
       type="xygrid"
       id="grid4172"
       spacingx="4"
       spacingy="4"
       empspacing="4" /></sodipodi:namedview><g
     id="g832"
     transform="matrix(0.25,0,0,0.25,18.666666,124)"
     style="stroke-width:4"><g
       style="fill:#2c3e50;fill-opacity:1;stroke-width:4"
       transform="matrix(1.3333333,0,0,-1.3333333,10.666669,160)"
       id="g40"><path
         id="path42"
         style="fill:#2c3e50;fill-opacity:1;fill-rule:nonzero;stroke:none;stroke-width:4"
         d="m 0,0 c -6.617,0 -12,5.383 -12,12 0,6.617 5.383,12 12,12 C 6.617,24 12,18.617 12,12 12,5.383 6.617,0 0,0 M 64,0 C 57.383,0 52,5.383 52,12 52,18.617 57.383,24 64,24 70.617,24 76,18.617 76,12 76,5.383 70.617,0 64,0 m 0,40 C 52.168,40 41.559,32.5 37.601,21.337 36.539,18.341 36,15.2 36,12 36,7.816 36.943,3.725 38.725,0 H 25.275 C 27.056,3.725 28,7.816 28,12 28,27.439 15.439,40 0,40 -15.439,40 -28,27.439 -28,12 -28,-3.439 -15.439,-16 0,-16 h 64 c 15.439,0 28,12.561 28,28 0,15.439 -12.561,28 -28,28"
         inkscape:connector-curvature="0" /></g><g
       style="fill:#ecf0f1;fill-opacity:1;stroke-width:4"
       transform="matrix(1.3333333,0,0,-1.3333333,96.000006,165.33333)"
       id="g44"><path
         id="path46"
         style="fill:#ecf0f1;fill-opacity:1;fill-rule:nonzero;stroke:none;stroke-width:4"
         d="m 0,0 c -8.837,0 -16,7.163 -16,16 0,8.836 7.163,16 16,16 C 8.837,32 16,24.836 16,16 16,7.163 8.837,0 0,0 m -80,16 c 0,8.836 7.164,16 16,16 8.836,0 16,-7.164 16,-16 0,-8.837 -7.164,-16 -16,-16 -8.836,0 -16,7.163 -16,16 M 0,40 C -10.43,40 -19.327,33.313 -22.629,24 -23.517,21.497 -24,18.804 -24,16 -24,9.85 -21.655,4.251 -17.838,0 H -24 -46.162 C -42.345,4.251 -40,9.85 -40,16 -40,29.233 -50.766,40 -64,40 -77.233,40 -88,29.233 -88,16 -88,2.767 -77.233,-8 -64,-8 H 0 C 13.233,-8 24,2.767 24,16 24,29.233 13.233,40 0,40"
         inkscape:connector-curvature="0" /></g></g></svg>
